X:1
T:I’m Happy Now
T:Warren Collins
T:I’m Happy Now
T:Public Domain
T:Public Domain
C:Warren Collins
Z:Public Domain
%%score ( 1 2 ) ( 3 4 )
L:1/8
M:2/4
K:F
V:1 treble 
V:2 treble 
V:3 bass 
V:4 bass 
V:1
 [A,C] | [B,D][B,D] [A,C][A,C] | [B,D][B,D] [A,C]C | [CF][CF] F[FA] | [EG]3 [A,C] | %5
w: 1.~I’m|hap- py now my|sins are gone, They’ve|been washed a- way;|Sav- ior|
w: 2.~I|once was down in|E- gypt’s land— A|of sin and woe—|I have|
w: 3.~Praise|God! just now my|ti- tle’s clear To|sions in the skies,|I shall|
w: 4.~Now|sin- ner, won’t you|come to Him Who|on Cal- va- ry?|wash a-|
 [B,D][B,D] [A,C][A,C] | [B,D][B,D] [A,C]C | [EG][^D^F] [EG][EA] | F3 ||"^Refrain" [FA] | %10
w: washed me in His|blood That flowed on|va- ry. * *|||
w: reached the Prom- ised|Land, Where milk and|ey flow. I do|be-|I|
w: dwell with Him a-|bove, Where plea- sure|ver dies. * *|||
w: way your ev- ery|sin, Set you at|er- ty. * *|||
 [FA][EG] [EG][GB] | [GB][FA] [FA][FA] | [FA][EG] [EG][GB] | [GB][FA] [FA][FA] | %14
w: ||||
w: now be- lieve, That|Je- sus died to|save my soul; I|do be- lieve, I|
w: ||||
w: ||||
 [FA][Ac] [Ac][FA] | [FB][Fc] [Fd][Fd] | [Fc]F [FA][CG] | [CF]3 |] %18
w: ||||
w: now be- lieve, That|Je- sus makes me|whole. * * *||
w: ||||
w: ||||
V:2
 x | x4 | x3 C | x2 F x | x4 | x4 | x3 C | x4 | F3 || x | x4 | x4 | x4 | x4 | x4 | x4 | x F x2 | %17
w: ||all|The|||Cal-|||||||||||
w: ||land|But|||hon-||lieve,|||||||||
w: ||man-|And|||ne-|||||||||||
w: ||died|He’ll|||lib-|||||||||||
 x3 |] %18
w: |
w: |
w: |
w: |
V:3
 F, | F,F, F,F, | F,F, F,[F,A,] | [F,A,][F,A,] [F,A,][F,C] | [C,C]3 F, | F,F, F,F, | %6
 F,F, F,[F,A,] | [C,B,][C,A,] [C,B,][C,C] | [F,A,]3 || [F,C] | [C,C][C,C] [C,C][C,C] | %11
 [F,C][F,C] [F,C][F,C] | [C,C][C,C] [C,C][C,C] | [F,C][F,C] [F,C][F,C] | [F,C][F,C] [F,C][F,C] | %15
 [D,B,][C,A,] [B,,B,][=B,,^G,] | [C,A,][C,A,] [C,C][C,B,] | [F,A,]3 |] %18
V:4
 F, | F,F, F,F, | F,F, F, x | x4 | x3 F, | F,F, F,F, | F,F, F, x | x4 | x3 || x | x4 | x4 | x4 | %13
 x4 | x4 | x4 | x4 | x3 |] %18

